!!!OTL: Verschlafener Jaeger Es wollt ein Jaeger jagen
!!!ARE: Europa, Mitteleuropa, Deutschland (BRD), Hessen, Marburg, Fronhausen
!!!YOR: 7, S. 185
!!    ????
!!!SCT: Q0152A
!!!YEM: Copyright 1995, estate of Helmut Schaffrath.
**kern
*ICvox
*Ivox
*M6/8
*k[b-e-]
*B-:
{8f
=1
4f
8f
8f
8g
8a
=2
4.b-
4g}
{8g
=3
4g
8g
8b-
8a
8g
=4
4f
8b-
4d}
{8f
=5
4f
8e-
8.c
16a
8a
=6
4b-
8dd
4dd}
{8dd
=7
4cc
8cc
8.ee-
16dd
8cc
=8
2b-
8r}
{8b-
=9
4b-
8b-
4dd
8dd
=10
4ff
8ff
4dd}
{8dd
=11
4cc
8cc
8ee-
8dd
8cc
=12
8b-
8dd
8cc
8b-
8a}
{8g
=13
4f
8b-
4b-
8dd
=14
4ff
8ff
4dd}
{8dd
=15
4cc
8cc
8ee-
8dd
8cc
=16
[4.b-
4b-]}
==
!!!AGN: Ballade, Verfuehrung, Versagen, Spott; Trink - Lied ?
!! Letzten Notenwert rhythmisch korrigiert. Fuenfte bis letzte Zeile
!!    = Refrain, z.T. auf sinnfreie Silben.
!!!ONB: ESAC (Essen Associative Code) Database: BALLADE
!!!AMT: compound duple
!!!AIN: vox
!!!EED: Helmut Schaffrath
!!!EEV: 1.0
*-
